X: 1225
T: Karcığar Seyir
C: Şefik Gürmeriç
O: Turkey
F: http://compmusic.upf.edu/node/140
N: karcigar--seyir--sofyan--1--sefik_gurmeric
N: makam= karcigar
N: form= seyir
N: usul= sofyan = 4/4
M: 4/4
L: 1/16
K: C _2/4B _3/4e ^3/4f 
Q: 1/4=60
%%MIDI tuningsystem comma53
c4 d4 d6e2  | d2c2 B2A2 A8  | z2d4e2 f2ga g2f2  | \
w:   |   |   | 
f3e feed d8  | 
w:   | 
d4 g4 g6a2  | _b3a aggf g8  | f2g2 a2_b2 a2g2 f2g2  | \
w:   |   |   | 
c'4 c'2_b2 a8  | 
w:   | 
z2a4b2 c'4 d'4  | c'2_b2 a2g2 fedc d4  | \
w:   |   | 
z2g4f2 f2e2 e2d2  | 
w:   | 
dfed c2B2 c4 z2Bc  | d2ed cBBA A4 a4  | \
w:   |   | 
g_bag fedc d=f=ed cBAG  | 
w:   | 
(3B2c2d2 (3e2d2c2 c3B cBBA  | A16  | |


